Font-Source/Egyptian2/svg-my/136B7.svg

<?xml version="1.0" encoding="UTF-8" standalone="no"?>
<svg
   width="7.451113"
   height="17.983217"
   version="1.1"
   id="svg1"
   sodipodi:docname="136B7.svg"
   inkscape:version="1.4.2 (f4327f4, 2025-05-13)"
   xmlns:inkscape="http://www.inkscape.org/namespaces/inkscape"
   xmlns:sodipodi="http://sodipodi.sourceforge.net/DTD/sodipodi-0.dtd"
   xmlns="http://www.w3.org/2000/svg"
   xmlns:svg="http://www.w3.org/2000/svg">
  <defs
     id="defs1" />
  <sodipodi:namedview
     id="namedview1"
     pagecolor="#ffffff"
     bordercolor="#666666"
     borderopacity="1.0"
     inkscape:showpageshadow="2"
     inkscape:pageopacity="0.0"
     inkscape:pagecheckerboard="0"
     inkscape:deskcolor="#d1d1d1"
     inkscape:zoom="64"
     inkscape:cx="3.8203125"
     inkscape:cy="5.3515625"
     inkscape:window-width="1680"
     inkscape:window-height="998"
     inkscape:window-x="-8"
     inkscape:window-y="-8"
     inkscape:window-maximized="1"
     inkscape:current-layer="svg1" />
  <path
     id="path1"
     style="fill:#000000;stroke:none"
     d="M 5.6054688,0 C 4.5010868,-0.02277067 3.7666764,0.33612187 3.4023438,1.0761719 3.3226464,1.2127966 3.2770103,1.3891467 3.265625,1.6054688 2.9809903,1.9698015 2.8398438,2.1917874 2.8398438,2.2714844 c 0,0.1024687 0.068453,0.1709221 0.2050781,0.2050781 l -0.068359,0.1191406 c -0.091083,0.079698 -0.08065,0.1605371 0.033203,0.2402344 -0.068312,0.1024687 -0.022677,0.2041719 0.1367188,0.3066406 -0.091083,0.091083 -0.097276,0.2217974 -0.017578,0.3925781 0,0.227708 -0.046342,1.021704 -0.7075289,1.2318092 C 2.062716,4.5721327 1.8750809,5.151731 2.3412992,5.151731 c 0.6124932,0 1.0458022,-0.7009851 1.2485446,-1.3939185 l 0.2910156,0.015625 C 3.5392981,4.6045702 3.3463226,5.4592622 3.3007812,6.3359375 L 4,6.3535156 C 4,6.4476936 4.00176,6.5449795 4.00391,6.6445312 3.6430384,6.6818106 3.3009674,6.7339842 2.9765625,6.8046875 2.5325325,6.9014635 2.1819526,6.9117286 1.9257812,6.8320312 1.6696105,6.7523333 1.4041087,6.6714949 1.1308594,6.5917969 0.85761004,6.5120996 0.48828505,6.6199956 0.02148438,6.9160156 c -0.045542,0.1366247 -0.02272396,0.2569063 0.06835937,0.359375 0.09108333,0.1024687 0.153344,0.1252867 0.1875,0.068359 C 0.39119775,7.2185107 0.5364173,7.129359 0.71289062,7.078125 0.88936395,7.0268903 1.125855,7.0537813 1.421875,7.15625 1.205553,7.30426 1.0001926,7.3582081 0.80664062,7.3183594 0.61308933,7.2785101 0.51757812,7.3200725 0.51757812,7.4453125 0.96160812,7.6388638 1.5177151,7.605614 2.1894531,7.34375 c 0.8254108,0.072831 1.4421158,0.087124 1.8476563,0.044922 0.0095,0.1480863 0.019955,0.301533 0.033203,0.4589843 C 3.6840063,7.8896956 3.3306621,7.9439407 3.0097656,8.0097656 2.5657356,8.1008489 2.219228,8.1091616 1.96875,8.0351562 1.7182713,7.9611515 1.4527701,7.8822657 1.1738281,7.796875 0.89488613,7.7114843 0.5172485,7.8215003 0.0390625,8.1289062 c -0.045542,0.1366247 -0.02060413,0.2528341 0.07617188,0.3496094 0.072582,0.072582 0.12529599,0.1017664 0.15625,0.087891 0.008522,-0.0051 0.0184564,-0.014891 0.0234375,-0.027344 C 0.42016121,8.4252078 0.57157355,8.3401298 0.74804688,8.2832031 0.9245202,8.2262764 1.1652509,8.2552873 1.4726562,8.3691406 1.2449489,8.5171513 1.0312759,8.5670264 0.83203125,8.5214844 0.63278725,8.4759437 0.53320312,8.5153863 0.53320312,8.640625 1.0000038,8.8455623 1.5580639,8.8227449 2.2070312,8.5722656 2.9537698,8.7176488 3.6031738,8.7569105 4.1542969,8.6875 c 0.08771,0.7760856 0.2121592,1.645463 0.375,2.609375 0.3529467,2.089218 0.5250571,3.520716 0.5136719,4.294922 -0.011385,0.535114 -0.3370274,0.877382 -0.9746094,1.025391 -1.2410067,0.159395 -1.867521,0.35237 -1.8789063,0.580078 v 0.785156 h 4.953125 L 7.4511719,2.9707031 C 7.4967132,1.0238018 6.880632,0.034156 5.6054688,0 Z M 5.5878906,0.44335938 C 6.1116186,0.4547447 6.4890889,0.67673033 6.7167969,1.109375 6.9445042,1.5420197 7.0338226,2.6353226 6.9882812,4.3886719 6.5897926,3.7397052 6.1353889,3.4098228 5.6230469,3.3984375 4.8260696,3.3870522 4.2846347,4.2583695 4,6.0117188 H 3.7265625 C 3.7493332,4.9187214 4.1206113,3.7964084 4.8378906,2.6464844 5.1111399,2.4757037 5.2522866,2.2661037 5.2636719,2.015625 5.2750572,1.617137 5.1339106,1.4117766 4.8378906,1.4003906 4.5190993,1.1954539 4.2058422,1.09375 3.8984375,1.09375 4.1375302,0.63833467 4.6998306,0.42058871 5.5878906,0.44335938 Z M 3.6757812,1.2988281 c 0.3757173,0.011385 0.6785421,0.096464 0.90625,0.2558594 -0.022771,0.045542 -0.041349,0.095417 -0.052734,0.1523437 C 4.3812862,1.5931772 4.2111294,1.5164115 4.0175781,1.4765625 3.8240268,1.4367138 3.6766875,1.4636048 3.5742188,1.5546875 3.5856041,1.4522188 3.6188539,1.3671401 3.6757812,1.2988281 Z m 1.1953126,0.3398438 c 0.056927,-0.00569 0.1087552,0.035703 0.1542968,0.1210937 0.091083,0.1707807 0.074458,0.3285525 -0.050781,0.4765625 -0.1252387,0.14801 -0.2205832,0.1977184 -0.2832032,0.1464844 -0.062619,-0.051234 -0.087557,-0.1446253 -0.076172,-0.28125 0.102468,-0.079698 0.125286,-0.1833545 0.068359,-0.3085937 0.068312,-0.096776 0.130573,-0.1486042 0.1875004,-0.1542969 z m -1.0078126,0.00977 c 0.1138539,0 0.2859643,0.03113 0.5136719,0.09375 -0.4668007,0.113854 -0.6949787,0.113854 -0.6835937,0 0,-0.06262 0.056068,-0.09375 0.1699218,-0.09375 z m -0.3574218,0.09375 C 3.5855567,1.9585095 3.735016,2.049781 3.9570312,2.015625 4.1790459,1.981469 4.3366511,1.9420257 4.4277344,1.8964844 l 0.1015625,0.050781 c -0.091083,0.14801 -0.1243332,0.2704115 -0.1015625,0.3671875 0.022771,0.096775 0.085031,0.1611558 0.1875,0.1953125 -0.1707813,0.1252395 -0.392767,0.4737003 -0.6660156,1.042969 L 3.4375,3.5351562 c -0.102468,0 -0.16049,-0.060141 -0.171875,-0.1796874 C 3.254239,3.235922 3.3122607,3.1301455 3.4375,3.0390625 L 3.8125,2.8007812 V 2.6816406 c -0.079697,0 -0.2726728,-0.051829 -0.5800781,-0.1542968 0.148009,-0.034157 0.2185806,-0.071479 0.2128906,-0.1113282 -0.00569,-0.039849 -0.026391,-0.062669 -0.060547,-0.068359 -0.034156,-0.00569 -0.092343,-0.00162 -0.1777344,0.00977 -0.08539,0.011381 -0.122713,-0.030016 -0.111328,-0.1210985 C 3.2550984,2.0200061 3.3920054,1.8560415 3.5058594,1.7421875 Z M 3.1289062,2.6308594 3.5390625,2.75 3.1464844,2.7832031 C 3.1009434,2.7262761 3.0947503,2.6764014 3.1289062,2.6308594 Z m 0.4101563,0.1875 -0.3242187,0.2207031 C 3.1351467,2.9935212 3.1185215,2.9374536 3.1640625,2.8691406 Z m 2.0839844,0.9394531 c 0.3074047,0.011386 0.6082761,0.2292987 0.9042969,0.65625 0.2960199,0.426952 0.4453124,0.9538814 0.4453124,1.5800781 L 6.7167969,17.539062 2.6171875,17.521484 v -0.169922 c 0.034156,-0.04554 0.5299561,-0.159631 1.4863281,-0.341796 0.899446,-0.09108 1.3600415,-0.568305 1.3828125,-1.433594 C 5.4977134,14.528717 5.3213633,12.995682 4.9570312,10.980469 4.7973622,10.0973 4.6749307,9.3051867 4.5917969,8.6035156 4.8121603,8.5461066 5.0134784,8.4688564 5.1953125,8.3691406 5.4457912,7.5949346 5.7548079,6.6779813 6.1191406,5.6191406 6.2671506,4.6969239 6.0037693,4.4853708 5.3320312,4.9863281 5.070168,5.4645141 4.8025462,6.4042848 4.5292969,7.8046875 c -0.0062,4.963e-4 -0.01139,0.00145 -0.017578,0.00195 -0.046355,-0.554999 -0.063986,-1.0393681 -0.050781,-1.453125 0,-0.4212587 0.107896,-0.9605744 0.3242187,-1.6152344 C 5.0014783,4.0836213 5.2814849,3.7578125 5.6230469,3.7578125 Z"
     sodipodi:nodetypes="cccsccccccscccccssscscscsccccssscsccscscccsccccccccsccccccccccccsccssssccssccscsccscccsccccccscccccccccccsccccccscccccccscs" />
</svg>

<?xml version="1.0" encoding="UTF-8" standalone="no"?>
<svg
   width="7.451113"
   height="17.983217"
   version="1.1"
   id="svg1"
   sodipodi:docname="136B7.svg"
   inkscape:version="1.4.2 (f4327f4, 2025-05-13)"
   xmlns:inkscape="http://www.inkscape.org/namespaces/inkscape"
   xmlns:sodipodi="http://sodipodi.sourceforge.net/DTD/sodipodi-0.dtd"
   xmlns="http://www.w3.org/2000/svg"
   xmlns:svg="http://www.w3.org/2000/svg">
  <defs
     id="defs1" />
  <sodipodi:namedview
     id="namedview1"
     pagecolor="#ffffff"
     bordercolor="#666666"
     borderopacity="1.0"
     inkscape:showpageshadow="2"
     inkscape:pageopacity="0.0"
     inkscape:pagecheckerboard="0"
     inkscape:deskcolor="#d1d1d1"
     inkscape:zoom="45.254834"
     inkscape:cx="3.5686795"
     inkscape:cy="6.7064659"
     inkscape:window-width="1680"
     inkscape:window-height="998"
     inkscape:window-x="-8"
     inkscape:window-y="-8"
     inkscape:window-maximized="1"
     inkscape:current-layer="svg1" />
  <path
     id="path1"
     style="fill:#000000;stroke:none"
     d="M 5.6054688 0 C 4.5010868 -0.02277067 3.7666764 0.33612187 3.4023438 1.0761719 C 3.3226464 1.2127966 3.2770103 1.3891467 3.265625 1.6054688 C 2.9809903 1.9698015 2.8398438 2.1917874 2.8398438 2.2714844 C 2.8398438 2.3739531 2.9082972 2.4424065 3.0449219 2.4765625 L 2.9765625 2.5957031 C 2.8854798 2.6754011 2.8959123 2.7562402 3.0097656 2.8359375 C 2.9414536 2.9384062 2.9870891 3.0401094 3.1464844 3.1425781 C 3.0554011 3.2336608 3.0492082 3.3643755 3.1289062 3.5351562 C 3.1289062 3.7628642 2.7842538 4.6673456 2.5097656 4.7890625 C 2.1511043 4.5942298 1.9634692 5.1738281 2.4296875 5.1738281 C 2.8322584 5.1738281 3.3871014 4.4507459 3.5898438 3.7578125 L 3.8808594 3.7734375 C 3.5392981 4.6045702 3.3463226 5.4592622 3.3007812 6.3359375 L 4 6.3535156 C 4 6.447694 4.0017569 6.5449795 4.0039062 6.6445312 C 3.6430384 6.6818106 3.3009674 6.7339842 2.9765625 6.8046875 C 2.5325325 6.9014635 2.1819526 6.9117286 1.9257812 6.8320312 C 1.6696105 6.7523333 1.4041087 6.6714949 1.1308594 6.5917969 C 0.85761004 6.5120996 0.48828505 6.6199956 0.021484375 6.9160156 C -0.024057625 7.0526403 -0.00123958 7.1729219 0.08984375 7.2753906 C 0.18092708 7.3778593 0.24318775 7.4006773 0.27734375 7.34375 C 0.39119775 7.2185107 0.5364173 7.129359 0.71289062 7.078125 C 0.88936395 7.0268903 1.125855 7.0537813 1.421875 7.15625 C 1.205553 7.30426 1.0001926 7.3582081 0.80664062 7.3183594 C 0.61308933 7.2785101 0.51757812 7.3200725 0.51757812 7.4453125 C 0.96160812 7.6388638 1.5177151 7.605614 2.1894531 7.34375 C 3.0148639 7.4165805 3.6315689 7.4308745 4.0371094 7.3886719 C 4.046611 7.5367582 4.0570648 7.6902049 4.0703125 7.8476562 C 3.6840063 7.8896956 3.3306621 7.9439407 3.0097656 8.0097656 C 2.5657356 8.1008489 2.219228 8.1091616 1.96875 8.0351562 C 1.7182713 7.9611515 1.4527701 7.8822657 1.1738281 7.796875 C 0.89488613 7.7114843 0.5172485 7.8215003 0.0390625 8.1289062 C -0.0064795 8.2655309 0.018458375 8.3817403 0.11523438 8.4785156 C 0.18781638 8.5510976 0.24053037 8.580282 0.27148438 8.5664062 C 0.28000673 8.5613085 0.28994079 8.5515152 0.29492188 8.5390625 C 0.42016121 8.4252078 0.57157355 8.3401298 0.74804688 8.2832031 C 0.9245202 8.2262764 1.1652509 8.2552873 1.4726562 8.3691406 C 1.2449489 8.5171513 1.0312759 8.5670264 0.83203125 8.5214844 C 0.63278725 8.4759437 0.53320312 8.5153863 0.53320312 8.640625 C 1.0000038 8.8455623 1.5580639 8.8227449 2.2070312 8.5722656 C 2.9537698 8.7176488 3.6031738 8.7569105 4.1542969 8.6875 C 4.2420071 9.4635856 4.3664561 10.332963 4.5292969 11.296875 C 4.8822436 13.386093 5.054354 14.817591 5.0429688 15.591797 C 5.0315834 16.126911 4.7059414 16.469179 4.0683594 16.617188 C 2.8273527 16.776583 2.2008384 16.969558 2.1894531 17.197266 L 2.1894531 17.982422 L 7.1425781 17.982422 L 7.4511719 2.9707031 C 7.4967132 1.0238018 6.880632 0.034156 5.6054688 0 z M 5.5878906 0.44335938 C 6.1116186 0.4547447 6.4890889 0.67673033 6.7167969 1.109375 C 6.9445042 1.5420197 7.0338226 2.6353226 6.9882812 4.3886719 C 6.5897926 3.7397052 6.1353889 3.4098228 5.6230469 3.3984375 C 4.8260696 3.3870522 4.2846347 4.2583695 4 6.0117188 L 3.7265625 6.0117188 C 3.7493332 4.9187214 4.1206113 3.7964084 4.8378906 2.6464844 C 5.1111399 2.4757037 5.2522866 2.2661037 5.2636719 2.015625 C 5.2750572 1.617137 5.1339106 1.4117766 4.8378906 1.4003906 C 4.5190993 1.1954539 4.2058422 1.09375 3.8984375 1.09375 C 4.1375302 0.63833467 4.6998306 0.42058871 5.5878906 0.44335938 z M 3.6757812 1.2988281 C 4.0514985 1.3102134 4.3543233 1.3952922 4.5820312 1.5546875 C 4.5592603 1.6002295 4.5406819 1.6501043 4.5292969 1.7070312 C 4.3812862 1.5931772 4.2111294 1.5164115 4.0175781 1.4765625 C 3.8240268 1.4367138 3.6766875 1.4636048 3.5742188 1.5546875 C 3.5856041 1.4522188 3.6188539 1.3671401 3.6757812 1.2988281 z M 4.8710938 1.6386719 C 4.9280207 1.6329792 4.979849 1.6743753 5.0253906 1.7597656 C 5.1164733 1.9305463 5.0998487 2.0883181 4.9746094 2.2363281 C 4.8493707 2.3843381 4.7540262 2.4340465 4.6914062 2.3828125 C 4.628787 2.3315785 4.6038491 2.2381872 4.6152344 2.1015625 C 4.7177024 2.0218645 4.7405204 1.918208 4.6835938 1.7929688 C 4.7519061 1.6961931 4.8141668 1.6443646 4.8710938 1.6386719 z M 3.8632812 1.6484375 C 3.9771351 1.6484375 4.1492455 1.6795678 4.3769531 1.7421875 C 3.9101524 1.8560415 3.6819744 1.8560415 3.6933594 1.7421875 C 3.6933594 1.6795678 3.7494274 1.6484375 3.8632812 1.6484375 z M 3.5058594 1.7421875 C 3.5855567 1.9585095 3.735016 2.049781 3.9570312 2.015625 C 4.1790459 1.981469 4.3366511 1.9420257 4.4277344 1.8964844 L 4.5292969 1.9472656 C 4.4382136 2.0952756 4.4049637 2.2176771 4.4277344 2.3144531 C 4.4505051 2.4112284 4.5127657 2.4756089 4.6152344 2.5097656 C 4.4444531 2.6350049 4.2224674 2.9834657 3.9492188 3.5527344 L 3.4375 3.5351562 C 3.335032 3.5351562 3.27701 3.4750147 3.265625 3.3554688 C 3.254239 3.235922 3.3122607 3.1301455 3.4375 3.0390625 L 3.8125 2.8007812 L 3.8125 2.6816406 C 3.7328027 2.6816406 3.5398272 2.6298118 3.2324219 2.5273438 C 3.3804309 2.4931867 3.4510025 2.4558646 3.4453125 2.4160156 C 3.4396195 2.3761666 3.4189216 2.3533462 3.3847656 2.3476562 C 3.3506096 2.3419643 3.2924222 2.3460369 3.2070312 2.3574219 C 3.1216413 2.3688072 3.0843181 2.3274111 3.0957031 2.2363281 C 3.2550984 2.0200061 3.3920054 1.8560415 3.5058594 1.7421875 z M 3.1289062 2.6308594 L 3.5390625 2.75 L 3.1464844 2.7832031 C 3.1009434 2.7262761 3.0947503 2.6764014 3.1289062 2.6308594 z M 3.5390625 2.8183594 L 3.2148438 3.0390625 C 3.1351467 2.9935212 3.1185215 2.9374536 3.1640625 2.8691406 L 3.5390625 2.8183594 z M 5.6230469 3.7578125 C 5.9304516 3.7691985 6.231323 3.9871112 6.5273438 4.4140625 C 6.8233637 4.8410145 6.9726562 5.3679439 6.9726562 5.9941406 L 6.7167969 17.539062 L 2.6171875 17.521484 L 2.6171875 17.351562 C 2.6513435 17.306021 3.1471436 17.191931 4.1035156 17.009766 C 5.0029616 16.918682 5.4635571 16.441461 5.4863281 15.576172 C 5.4977134 14.528717 5.3213633 12.995682 4.9570312 10.980469 C 4.7973622 10.0973 4.6749307 9.3051867 4.5917969 8.6035156 C 4.8121603 8.5461066 5.0134784 8.4688564 5.1953125 8.3691406 C 5.4457912 7.5949346 5.7548079 6.6779813 6.1191406 5.6191406 C 6.2671506 4.6969239 6.0037693 4.4853708 5.3320312 4.9863281 C 5.070168 5.4645141 4.8025462 6.4042848 4.5292969 7.8046875 C 4.5230935 7.8051838 4.5179073 7.8061389 4.5117188 7.8066406 C 4.4653637 7.2516416 4.4477326 6.7672725 4.4609375 6.3535156 C 4.4609375 5.9322569 4.5688335 5.3929412 4.7851562 4.7382812 C 5.0014783 4.0836213 5.2814849 3.7578125 5.6230469 3.7578125 z " />
</svg>
